!!!!SEGMENT: pl-sa--81-a-ii-21--004_anonim--ave-verum-corpus.krn
!!!cenid: 17xx:700
!!!COM: Anonim
!!!COM-rismID: pe30004985
!!!CDT:
!!!CNT:
!!!OTL: Ave verum corpus
!!!PDT:
!!!AGN: Sacred
!!!SMS-siglum: PL-SA
!!!SMS-shelfmark: 81/A II 21
!!!SMS-shelfwork: 004 W
!!!SMS-variant:
!!!SMS-altvar:
!!!NIFC-rismSourceID: 1001041176
!!!NIFC-rismChildID: 1001041176
!!!NIFC-islandoraID: none
!!!URL-pdf-islandora:
!!!URL-scan: https://bc.bdsandomierz.pl/dlibra/publication/1359/edition/1327/content @EN{Scan in the Sandomierz Diocese Digital Library} @PL{Skany w portalu Cyfrowa Biblioteka Diecezjalna w Sandomierzu}
!!!ONB-nifc:
!!!AIN: 1 empty 1 violn 1 vox
!!!key:
**kern	**fba	**kern	**kern	**text
*part3	*	*part2	*part1	*part1
*staff3	*	*staff2	*staff1	*staff1
*Iempty	*	*Ivioln	*Ivox	*
*I"P3	*	*I"Violino Solo	*I"Canto	*
*I'bc	*	*I'vl	*I'S	*
*clefF4	*	*clefG2	*clefC1	*
*k[f#c#g#]	*	*k[f#c#g#]	*k[f#c#g#]	*
*A:	*	*A:	*A:	*
*M2/2	*	*M2/2	*M2/2	*
*met(c|)	*	*met(c|)	*met(c|)	*
*>[A,B,A]	*	*>[A,B,A]	*>[A,B,A]	*
=1	=1	=1	=1	=1
*>A	*	*>A	*>A	*
!	!	!LO:TX:a:t=Concerto 4to de Corpore Chriſti \nViolino Solo	!LO:TX:a:t=Concerto 4/0 De Corpore Chriſti  Da Capo	!
!LO:TX:a:t=P:problem=krzyżyki GG# C# A# F#	!	!LO:TX:a:t=P:problem=krzyżyki g# cc# ff# jeden nad drugim	!LO:TX:a:t=P:problem=krzyżyki c# f# cc#	!
!LO:TX:a:t=P:problem=brak nazwy głosu, na stronie tytułowej "Baſso Continuo"	!	!	!	!
4A\	.	(16e/LL	00r	.
.	.	16a/	.	.
.	.	16g#/	.	.
.	.	16a/JJ)	.	.
8r	.	(16cc#/LL	.	.
.	.	16a/	.	.
8A\	.	16g#/	.	.
.	.	16a/JJ)	.	.
!LO:TX:a:t=P:problem=mixed beam	!	!	!	!
8A\L	.	(16e/LL	.	.
.	.	16a/)	.	.
8AA/J	.	(16g#/	.	.
.	.	16a/JJ)	.	.
8r	.	(16cc#/LL	.	.
.	.	16a/	.	.
8A\	.	16g#/	.	.
.	.	16a/JJ)	.	.
=2	=2	=2	=2	=2
4E\	.	(16e/LL	.	.
.	.	16b/)	.	.
.	.	(16a/	.	.
.	.	16b/JJ)	.	.
8r	.	(16dd\LL	.	.
.	.	16b\	.	.
8E\	.	16a\	.	.
.	.	16b\JJ)	.	.
!LO:TX:a:t=P:problem=mixed beam	!	!	!	!
8E\L	.	(16e/LL	.	.
.	.	16b/)	.	.
8EE/J	.	(16a/	.	.
.	.	16b/JJ)	.	.
8r	.	(16dd\LL	.	.
.	.	16b\	.	.
8E\	.	16a\	.	.
.	.	16b\JJ)	.	.
=3	=3	=3	=3	=3
4A\	.	(16a\LL	.	.
.	.	16cc#\	.	.
.	.	16b\	.	.
.	.	16cc#\JJ)	.	.
8r	.	(16ee\LL	.	.
.	.	16cc#\	.	.
8A\	.	16b\	.	.
.	.	16cc#\JJ)	.	.
!LO:TX:a:t=P:problem=mixed beam	!	!	!	!
8A\L	.	(16a\LL	.	.
.	.	16cc#\	.	.
8AA/J	.	16b\	.	.
.	.	16cc#\JJ)	.	.
8r	.	(16ee\LL	.	.
.	.	16cc#\	.	.
8A\	.	16b\	.	.
.	.	16cc#\JJ)	.	.
=4	=4	=4	=4	=4
8A\L	.	(16a\LL	.	.
.	.	16cc#\	.	.
8c#\	6	16dd\	.	.
.	.	16ee\JJ)	.	.
8d\	.	(16ff#\LL	.	.
.	.	16ee\	.	.
8c#\J	6	16ff#\	.	.
.	.	16gg#\JJ)	.	.
!	!	!LO:TX:a:t=P:problem=mixed beam	!	!
8A\L	.	8aa\L	.	.
16A\L	.	8a/J	.	.
16B\JJ	6	.	.	.
!	!	!LO:LB:g=original	!	!
8c#\L	6	8r	.	.
8A\J	.	16aa\LL	.	.
.	.	16ee\JJ	.	.
!LO:LB:g=original	!	!	!	!
=5	=5	=5	=5	=5
8d\L	.	(16ff#\LL	1r	.
.	.	16gg#\)	.	.
8c#\	6	(16ee\	.	.
.	.	16ff#\JJ)	.	.
8B\	6	(16dd\LL	.	.
.	.	16ee\)	.	.
8A\J	.	(16cc#\	.	.
.	.	16dd\JJ)	.	.
8E\L	.	8b/L	.	.
16E\L	.	8e/J	.	.
16F#\JJ	.	.	.	.
8G#\L	6	8r	.	.
8E\J	7	8b/	.	.
=6	=6	=6	=6-	=6
8A\L	6	8cc#\L	2r	.
8D\J	5	16b\L	.	.
.	.	16a\JJ	.	.
!LO:TX:a:t=P:problem=mixed beam	!	!	!	!
8E\L	.	8e/L	.	.
8EE/J	4	8g#/	.	.
.	3	.	.	.
8AA/L	6 4	8a/	4.ee\	A-
8BB/	.	8A/J	.	.
!	!	!LO:TX:a:t=P:problem=skreślona kreska taktowa	!	!
8C#/	6	4r	.	.
*	*	*	*Xtuplet	*
16D/L	.	.	24dd\LL	-ve
.	.	.	24cc#\	.
16E/JJ	.	.	.	.
.	.	.	24b\JJ	.
=7	=7	=7	=7	=7
8F#\L	6	0r	4a\	ve-
8E\	6 4	.	.	.
8D\	.	.	4a\	-rum
8C#\J	6	.	.	.
4BB/	.	.	8dd\L	cor-
.	.	.	8ff#\J	.
4E\	.	.	8ee\L	-pus
.	.	.	8dd\J	.
=8	=8	=8	=8	=8
2AA/	4	.	8dd\L	na-
.	3	.	8cc#\J	.
.	.	.	4cc#\	-tum
8E\L	.	.	4.b\	de
8F#\	.	.	.	.
8G#\	6 4	.	.	.
8A\J	6 4	.	8cc#\	Ma-
=9	=9	=9	=9	=9
8E\L	.	1r	4g#/	-ri-
8D\	6 4	.	.	.
8C#\	6	.	(8a\L	-a
8BB\J	.	.	8dd\J)	.
8AA/L	.	.	4cc#\	Vir-
8D/J	6	.	.	.
!LO:TX:a:t=P:problem=mixed beam	!	!	!	!
8E\L	.	.	8.b\L	-gi-
8EE/J	4	.	.	.
!	!	!	!LO:N:vis=8	!
.	3	.	16a\Jk	.
!LO:LB:g=original	!	!	!	!
=10	=10	=10	=10	=10
4AA/	.	(16e/LL	4a\	-ne
.	.	16a/)	.	.
.	.	(16g#/	.	.
.	.	16a/JJ)	.	.
8r	.	(16cc#/LL	4r	.
.	.	16a/)	.	.
8AA/	.	(16g#/	.	.
.	.	16a/JJ)	.	.
4AA/	.	(16e/LL	2rf	.
.	.	16a/)	.	.
.	.	(16g#/	.	.
.	.	16a/JJ)	.	.
8r	.	(16cc#/LL	.	.
.	.	16a/)	.	.
8AA/	.	(16g#/	.	.
.	.	16a/JJ)	.	.
!	!	!	!LO:LB:g=original	!
=11	=11	=11	=11	=11
!LO:TX:a:t=P:problem=mixed beam	!	!	!	!
8E\L	.	(16e/LL	00r	.
.	.	16b/)	.	.
8EE/J	.	(16a/	.	.
.	.	16b/JJ)	.	.
8r	.	(16dd\LL	.	.
.	.	16b\	.	.
8E\	.	16a\	.	.
.	.	16b\JJ)	.	.
4E\	.	(16e/LL	.	.
.	.	16b/)	.	.
.	.	(16a/	.	.
.	.	16b/JJ)	.	.
!	!	!LO:LB:g=original	!	!
8r	.	(16dd\LL	.	.
.	.	16b\)	.	.
8E\	.	(16a\	.	.
.	.	16b\JJ)	.	.
=12	=12	=12	=12	=12
!LO:TX:a:t=P:problem=mixed beam	!	!	!	!
8A\L	.	(16a\LL	.	.
.	.	16cc#\	.	.
8AA/J	.	16b\	.	.
.	.	16cc#\JJ)	.	.
8r	.	(16ee\LL	.	.
.	.	16cc#\	.	.
8A\	.	16b\	.	.
.	.	16cc#\JJ)	.	.
4A\	.	(16a\LL	.	.
.	.	16cc#\	.	.
.	.	16b\	.	.
.	.	16cc#\JJ)	.	.
8r	.	(16ee\LL	.	.
.	.	16cc#\	.	.
8A\	.	16b\	.	.
.	.	16cc#\JJ)	.	.
=13	=13	=13	=13	=13
8A\L	.	(16a\LL	.	.
.	.	16cc#\	.	.
8c#\	6	16dd\	.	.
.	.	16ee\JJ)	.	.
8d\	.	(16ff#\LL	.	.
.	.	16ee\	.	.
8c#\J	6	16ff#\	.	.
.	.	16gg#\JJ)	.	.
!	!	!LO:TX:a:t=P:problem=mixed beam	!	!
8A\L	.	8aa\L	.	.
16A\L	.	8a/J	.	.
16B\JJ	6	.	.	.
8c#\L	6	8r	.	.
8A\J	.	16aa\LL	.	.
.	.	16ee\JJ	.	.
=14	=14	=14	=14	=14
8d\L	.	(16ff#\LL	.	.
.	.	16gg#\)	.	.
8c#\	6	(16ee\	.	.
.	.	16ff#\JJ)	.	.
8B\	.	(16dd\LL	.	.
.	.	16ee\)	.	.
8A\J	6	(16cc#\	.	.
.	.	16dd\JJ)	.	.
8E\L	.	8b/L	.	.
16E\L	.	8e/J	.	.
16F#\JJ	.	.	.	.
8G#\L	6	8r	.	.
8E\J	7	8b/	.	.
!LO:LB:g=original	!	!	!	!
=15	=15	=15	=15	=15
8A\L	.	8cc#\L	2rf	.
8D\	6	16b\L	.	.
.	.	16a\JJ	.	.
!LO:TX:a:t=P:problem=mixed beam	!	!	!	!
8E\	4	8e/L	.	.
8EE/J	3	8g#/	.	.
8AA/L	6 4	8a/	4.ee\	A-
8BB/	.	8A/J	.	.
!	!	!LO:TX:a:t=P:problem=skreślona kreska taktowa	!	!
8C#/	6	4r	.	.
8E/J	.	.	24dd\LL	-ve
.	.	.	24cc#\	.
.	.	.	24b\JJ	.
=16	=16	=16	=16	=16
8F#\L	6	0r	4a\	ve-
8E\	6 4	.	.	.
8D\	6	.	4a\	-rum
8C#\J	.	.	.	.
4BB/	.	.	8dd\L	cor-
.	.	.	8ff#\J	.
!LO:TX:a:t=P:problem=mixed beam	!	!	!	!
8E\L	7	.	8ee\L	-pus
8EE/J	.	.	8dd\J	.
=17	=17	=17	=17	=17
8AA/L	.	.	8dd\L	na-
16AA/L	.	.	8cc#\J	.
16BB/JJ	.	.	.	.
8C#/L	.	.	4cc#\	-tum
8AA/J	.	.	.	.
8E\L	.	.	4.b\	de
8F#\	6 4	.	.	.
8G#\	.	.	.	.
8A\J	.	.	8cc#\	Ma-
=18	=18	=18	=18	=18
8E\L	.	1r	4g#/	-ri-
8D\	6 4	.	.	.
8C#\	6	.	8a\L	-a
8BB\J	.	.	8dd\J	.
8AA/L	.	.	4cc#\	Vir-
8D/J	6	.	.	.
!LO:TX:a:t=P:problem=mixed beam	!	!	!	!
8E\L	.	.	8.b\L	-gi-
8EE/J	4	.	.	.
.	3	.	16a\Jk	.
*	*	*custos	*	*
!	!	!LO:LB:g=original	!	!
=19	=19	=19	=19	=19
4AA/	.	16aa\LL	4a\	-ne
.	.	(16ee\	.	.
.	.	16dd\	.	.
.	.	16cc#\JJ)	.	.
!LO:TX:a:t=P:problem=mixed beam	!	!	!	!
8E\L	.	16dd\LL	4r	.
.	.	(16b\	.	.
8EE/J	.	16g#\	.	.
.	.	16b\JJ)	.	.
8AA/L	.	8a/L	4cc#\	ve-
8A\	.	8A/J	.	.
!LO:TX:a:t=P:problem=mixed beam	!	!	!	!
8G#\	6	4r	(8b\L	-re
8F#\J	6	.	8a\J)	.
*	*	*	*custos:b	*
!LO:LB:g=original	!	!	!LO:LB:g=original	!
=20	=20	=20	=20	=20
4G#\	.	(16ee\LL	4b\	paſ-
.	.	16b\	.	.
.	.	16a\	.	.
.	.	16g#\JJ)	.	.
4E\	.	(16b/LL	4ee\	-sum
.	.	16g#/	.	.
.	.	16d#X/	.	.
.	.	16e/JJ)	.	.
!	!	!LO:TX:a:t=P:problem=mixed beam	!	!
8D#X/L	5	8f#/L	4.a\	im-
8C#/	6	8ff#\J	.	.
8D#/	5	4r	.	.
8BB/J	7	.	8a\	-mo-
=21	=21	=21	=21	=21
*2\right	*	*	*	*
2E\	.	16e/LL	8a\L	-la-
.	.	(16g#/	.	.
.	.	16b/	8g#\J	.
.	.	16dd/JJ)	.	.
.	.	16gg#\LL	4g#\	-tum
.	.	(16ee\	.	.
.	.	16dd#X\	.	.
.	.	16ee\JJ)	.	.
8G#\L	6	8b/L	4b\	in
8F#\	6	8e/J	.	.
8G#\	7	4r	(8ee\L	cru-
8E\J	-	.	8dd-X\J)	.
=22	=22	=22	=22	=22
8A\L	.	1r	8cc#\L	-ce
8G#\	6	.	8b\J	.
8F#\	6\	.	8a\L	pro
8E\J	.	.	8g#\J	.
!LO:TX:a:t=P:problem=mixed beam	!	!	!	!
8B\L	.	.	4.f#/	ho-
8A\	.	.	.	.
8B\	4	.	.	.
8BB/J	#	.	8f#/	-mi-
=23	=23	=23	=23	=23
4E\	.	16b\LL	4e/	-ne
.	.	(16ee\	.	.
.	.	16dd#X\	.	.
.	.	16ee\JJ)	.	.
8r	.	16gg#\LL	4r	.
.	.	(16ee\	.	.
!	!	!LO:TX:a:t=P:problem=# above	!	!
8E\	.	16dd#X\	.	.
.	.	16ee\JJ)	.	.
4E\	.	16b\LL	2rf	.
.	.	(16ee\	.	.
!	!	!LO:TX:a:t=P:problem=# above	!	!
.	.	16dd#X\	.	.
.	.	16ee\JJ)	.	.
8r	.	16gg#\LL	.	.
.	.	(16ee\	.	.
!	!	!LO:TX:a:t=P:problem=# above	!	!
8E\	.	16dd#X\	.	.
.	.	16ee\JJ)	.	.
*	*	*custos:cc	*	*
!	!	!LO:LB:g=original	!	!
=24	=24	=24	=24	=24
8A\L	.	(16cc#\LL	1r	.
.	.	16dd\)	.	.
8G#\	6	(16b\	.	.
.	.	16cc#\JJ)	.	.
8F#\	6\	(16a/LL	.	.
.	.	16b/)	.	.
8E\J	.	(16g#/	.	.
.	.	16a/JJ)	.	.
!LO:TX:a:t=P:problem=mixed beam	!	!	!	!
8B\L	.	8a/L	.	.
8BB/	.	8A/J	.	.
8D#X/	6	8r	.	.
8BB/J	.	8a/	.	.
=25	=25	=25	=25-	=25
!LO:TX:a:t=P:problem=mixed beam	!	!	!	!
8E\L	6	8g#/L	2rf	.
8A\	5	16f#/L	.	.
.	.	16e/JJ	.	.
8B\	.	8B/L	.	.
8BB/J	4	8d#X/J	.	.
.	3	.	.	.
!LO:LB:g=original	!	!	!	!
8E\L	.	4e/	4.b\	ve-
8F#\	6 4	.	.	.
8G#\	.	4r	.	.
8E\J	6	.	(16cc#\LL	-re
.	.	.	16dd\JJ)	.
!	!	!	!LO:LB:g=original	!
=26	=26	=26	=26	=26
8A\L	.	1r	(8ee\L	paſ-
16A\L	.	.	8a\J)	.
16B\JJ	6	.	.	.
8c#\L	6	.	4a\	-sum
8A\J	.	.	.	.
8B\L	.	.	4.dd\	im-
8A\	.	.	.	.
8G#\	.	.	.	.
16F#\L	6	.	8dd\	-mo-
16E\JJ	7	.	.	.
=27	=27	=27-	=27	=27
!LO:TX:a:t=P:problem=mixed beam	!	!	!	!
8A\L	.	2r	8dd\L	-la-
16AA/L	.	.	8cc#\J	.
16BB/JJ	.	.	.	.
8C#/L	6	.	4cc#\	-tum
8AA/J	.	.	.	.
!	!	!LO:TX:a:t=P:problem=mixed beam	!	!
4A\	-	8aa\L	4cc#\	in
.	.	8a/	.	.
4F-X\	6	8aa\	8dd\L	cru-
.	5	8a/J	8cc-X\J	.
.	-	.	.	.
=28	=28	=28	=28	=28
!	!	!LO:TX:a:t=P:problem=mixed beam	!	!
4E\	.	8gg#\L	4b\	-ce
.	.	8e/	.	.
4r	.	8gg#\	4r	.
.	.	8e/J	.	.
!	!	!LO:TX:a:t=P:problem=mixed beam	!	!
4A\	-	8aa\L	4cc-X\	in
.	.	8a/	.	.
4F-X\	6	8aa\	8dd\L	cru-
.	5	8a/J	8cc-X\J	.
.	-	.	.	.
=29	=29	=29	=29	=29
!	!	!LO:TX:a:t=P:problem=mixed beam	!	!
4E\	.	8gg#\L	4b\	-ce
.	.	8e/	.	.
!	!	!	!LO:N:vis=4.	!
4C#\	-	8aa\	4a\	pro
.	.	8cc-X\J	.	.
!LO:TX:a:t=P:problem=mixed beam	!	!	!	!
8F#\L	.	8aa\L	4.g#\	ho-
8D\	.	8cc-X\	.	.
8E\	.	8b\	.	.
8EE/J	4	8gg#\J	8a\	-mi-
.	3	.	.	.
=30	=30	=30	=30	=30
!LO:TX:b:t=a	!	!LO:TX:a:t=P:problem=mixed beam	!	!
4AA/	.	16aa\LL	4a\	-ne
.	.	(16a/	.	.
.	.	16g#/	.	.
.	.	16a/JJ)	.	.
4r	.	(16cc#\LL	4r	.
.	.	16a\	.	.
.	.	16g#\	.	.
.	.	16a\JJ)	.	.
!	!	!LO:LB:g=original	!	!
4.A\	.	16e/LL	4.ee\	ve-
.	.	(16a/	.	.
.	.	16g#/	.	.
.	.	16a/JJ)	.	.
!	!	!LO:TX:a:t=P:problem=mixed beam	!	!
.	.	16cc#\LL	.	.
.	.	(16a/	.	.
8c#\	.	16g#/	8ee\	-re
.	.	16a/JJ)	.	.
!	!	!	!LO:LB:g=original	!
=31	=31	=31	=31	=31
!	!	!LO:TX:a:t=P:problem=mixed beam	!	!
8d\L	.	8ff#\L	4ff#\	paſ-
8B\	.	8d/	.	.
8c#\	6	8ee\	8ee\L	-sum
8A\J	.	8c#/J	8a\J	.
!	!	!LO:TX:a:t=P:problem=mixed beam	!	!
8c#\L	6	16ee\LL	4ee\	im-
.	.	(16a/	.	.
8B\	.	16g#/	.	.
.	.	16a/JJ)	.	.
8c#\	6	16cc#\LL	4ee\	-mo-
.	.	(16a\	.	.
8A\J	.	16g#\	.	.
.	.	16a\JJ)	.	.
!LO:LB:g=original	!	!	!	!
=32	=32	=32	=32	=32
!	!	!LO:TX:a:t=P:problem=mixed beam	!	!
8d\L	.	8ff#\L	8ff#\L	-la-
8B\	.	8d/J	8ee\J	.
!	!	!LO:TX:a:t=P:problem=mixed beam	!	!
8c#\	6	8ee\L	4ee\	-tum
8A\J	.	8c#/J	.	.
8B\L	.	2r	4dd\	in
!LO:TX:a:t=P:problem=mixed beam	!	!	!	!
8E\	.	.	.	.
8A\	.	.	4cc#\	Cru-
8AA/J	.	.	.	.
=33	=33	=33	=33	=33
8F#\L	.	1r	8b\L	-ce
8A\	.	.	8cc#\J	.
8F#\	6	.	8a\L	pro
8D\J	6	.	8b\J	.
8E\L	6	.	4.e/	ho-
!LO:TX:a:t=P:problem=mixed beam	!	!	!	!
8D\	.	.	.	.
8E\	.	.	.	.
8EE/J	4	.	8g#/	-mi-
.	3	.	.	.
=34	=34	=34	=34	=34
4AA/	.	16e/LL	4a\	-ne
.	.	(16a/	.	.
.	.	16g#/	.	.
.	.	16a/JJ)	.	.
8r	.	16cc#\LL	4r	.
.	.	(16a\	.	.
8AA/	.	16g#\	.	.
.	.	16a\JJ)	.	.
4AA/	.	16e/LL	2rf	.
.	.	(16a/	.	.
.	.	16g#/	.	.
.	.	16a/JJ)	.	.
8r	.	16cc#\LL	.	.
.	.	(16a\	.	.
8AA/	.	16g#\	.	.
.	.	16a\JJ)	.	.
=35	=35	=35	=35	=35
!	!	!	!LO:TX:a:t=6	!
4E\	.	16e/LL	00r	.
.	.	(16b/	.	.
.	.	16a/	.	.
.	.	16b/JJ)	.	.
8r	.	16dd\LL	.	.
.	.	(16b\	.	.
8E\	.	16a\	.	.
.	.	16b\JJ)	.	.
!LO:TX:a:t=P:problem=mixed beam	!	!	!	!
8E\L	.	16e/LL	.	.
.	.	(16b/	.	.
8EE/J	.	16a/	.	.
.	.	16b/JJ)	.	.
8r	.	16dd\LL	.	.
.	.	(16b\	.	.
8E\	.	16a\	.	.
.	.	16b\JJ)	.	.
!	!	!LO:LB:g=original	!	!
=36	=36	=36	=36	=36
4A\	.	16a\LL	.	.
.	.	(16cc#\	.	.
.	.	16b\	.	.
.	.	16cc#\JJ)	.	.
8r	.	16ee\LL	.	.
.	.	(16cc#\	.	.
8A\	.	16b\	.	.
.	.	16cc#\JJ)	.	.
!LO:TX:a:t=P:problem=mixed beam	!	!	!	!
8A\L	.	16a\LL	.	.
.	.	(16cc#\	.	.
8AA/J	.	16b\	.	.
.	.	16cc#\JJ)	.	.
8r	.	16ee\LL	.	.
.	.	(16cc#\	.	.
8A\	.	16b\	.	.
.	.	16cc#\JJ)	.	.
!LO:LB:g=original	!	!	!	!
=37	=37	=37	=37	=37
8A\L	.	16a\LL	.	.
.	.	(16cc#\	.	.
8c#\	6	16dd\	.	.
.	.	16ee\JJ)	.	.
8d\	.	16ff#\LL	.	.
.	.	16ee\	.	.
8B\J	.	16ff#\	.	.
.	6	16gg#\JJ	.	.
!	!	!LO:TX:a:t=P:problem=mixed beam	!	!
8A\L	.	8aa\L	.	.
16A\L	.	8a/J	.	.
16B\JJ	.	.	.	.
8c#\L	.	8r	.	.
8A\J	.	16aa\LL	.	.
.	.	16ee\JJ	.	.
=38	=38	=38	=38	=38
8d\L	.	16ff#\LL	.	.
.	.	(16gg#\	.	.
8c#\	6	16ee\	.	.
.	.	16ff#\JJ)	.	.
8B\	6	16dd\LL	.	.
.	.	(16ee\	.	.
8A\J	.	16cc#\	.	.
.	.	16dd\JJ)	.	.
8E\L	.	8b/L	.	.
16E\L	.	8e/J	.	.
16F#\JJ	.	.	.	.
8G#\L	6	8r	.	.
8E\J	.	8dd\	.	.
=39	=39	=39	=39	=39
8A\L	.	8cc#\L	0r	.
8D\J	.	16b\L	.	.
.	.	16a\JJ	.	.
!LO:TX:a:t=P:problem=mixed beam	!	!	!	!
8E\L	.	8e/L	.	.
8EE/J	4	8g#/J	.	.
.	3	.	.	.
!LO:TX:a:t=P:problem=mixed beam	!	!	!	!
8AA/L	.	4a/	.	.
16E\L	.	.	.	.
16F#\JJ	.	.	.	.
8G#\L	.	8r	.	.
8E\J	.	8dd\	.	.
*	*	*custos:cc	*	*
!	!	!LO:LB:g=original	!	!
=40	=40	=40	=40	=40
!LO:TX:a:t=P:problem=mixed beam	!	!	!	!
8A\L	.	8cc#\L	.	.
8D\	.	16b\L	.	.
.	.	16a\JJ	.	.
8E\	.	8e/L	.	.
8EE/J	.	8g#/	.	.
4AA/	.	8a/	.	.
.	.	8A/J	.	.
!LO:TX:b:t=verte piu prime	!	!	!	!
4r	.	4r	.	.
!LO:PB:g=original	!	!	!LO:LB:g=original	!
=41||	=41||	=41||;	=41||	=41||
*>B	*	*>B	*>B	*
*M3/4	*	*M3/4	*M3/4	*
!	!	!LO:N:vis=0	!	!
4AA/	.	1.r	4r	.
2A\	.	.	4cc#\	Cu-
.	.	.	4cc#\	-jus
=42	=42	=42	=42	=42
*	*	*	*2\right	*
2.G#\	6	.	2b\	la-
.	.	.	4e/	-tus
=43	=43	=43	=43	=43
2F#\	6 3	2.r	(4a\	per-
.	x 2	.	4g#\	-fo-
4BB/	#7r	.	4f#\)	.
=44	=44	=44	=44	=44
4E\	.	8r	2g#/	-ra-
.	.	8b\L	.	.
4r	.	8cc#\	.	.
.	.	8dd\J	.	.
4E\	.	16ee\LL	4e/	-tum
.	.	16dd\	.	.
.	.	16ee\	.	.
.	.	16b\JJ	.	.
=45	=45	=45	=45	=45
!	!	!	!LO:N:vis=00	!
8A\L	.	8cc#\L	0.r	.
8C#\	6	16dd\L	.	.
.	.	16ee\JJ	.	.
8D\	.	8ff#\L	.	.
8E\	.	8gg#\	.	.
8F#\	.	8aa\	.	.
8C#\J	6	8ee\J	.	.
=46	=46	=46	=46	=46
4D/	.	16ff#\LL	.	.
.	.	16ee\	.	.
.	.	16dd\	.	.
.	.	16ee\JJ	.	.
4C#/	6	8ee\L	.	.
.	.	8b\	.	.
4BB/	.	8.dd\	.	.
.	.	16dd\Jk	.	.
=47	=47	=47	=47	=47
4D\	.	8b/L	.	.
.	.	8dd/	.	.
4E\	.	8g#/	.	.
.	.	8f#/J	.	.
4C#/	6	4a/	.	.
=48	=48	=48	=48	=48
4D\	.	8b/L	.	.
.	.	8a/J	.	.
4E\	.	4.g#/	.	.
4EE/	4	.	.	.
.	3	8a/	.	.
=49	=49	=49	=49-	=49
4AA/	.	4a/	4r	.
2A\	.	4r	4cc#\	cu-
.	.	4r	4cc#\	-jus
=50	=50	=50	=50	=50
!	!	!LO:N:vis=0	!	!
2.G#\	6	1.r	2b\	la-
.	.	.	4e/	-tus
!LO:LB:g=original	!	!	!	!
=51	=51	=51	=51	=51
2F#\	6 3	.	(4a\	per-
.	x 2	.	4g#\	-fo-
4BB/	.	.	4f#\)	.
!	!	!	!LO:LB:g=original	!
=52	=52	=52	=52	=52
!	!	!LO:TX:b:t=Verte Cito	!	!
2.E\	.	8r	2g#/	-ra-
!	!	!LO:PB:g=original	!	!
.	.	8e/L	.	.
!	!	!LO:TX:a:t=P:problem=mixed beam	!	!
.	.	8g#/	.	.
.	.	8b/	.	.
.	.	8ee\	4e/	-tum
.	.	8e/J	.	.
=53	=53	=53	=53	=53
4E\	.	4b/	4r	.
4r	.	4g#/	4b\	un-
4E\	.	4e/	4b\	-da
=54	=54	=54	=54	=54
4.G#\	6	2.rb	(8ee\L	flu-
.	.	.	8ff#\	.
.	.	.	8ee\)	.
8E\L	.	.	(8b\	.
8G#\	6	.	8ee\	.
8E\J	.	.	8dd\J)	.
=55	=55	=55	=55	=55
2.A\	6	8r	4cc#\	.
.	.	8a\L	.	.
.	.	8cc#\	4cc#\	-xit
.	5	8ee\	.	.
.	.	8dd\	8ff#\L	flu-
.	.	8cc#\J	8ee\J	.
=56	=56	=56	=56	=56
4B\	.	4b/	(8dd\L	.
.	.	.	8cc#\	.
8G#\L	6	4B/	8b\)	.
8F#\	.	.	(8a\	.
8E\	.	4r	8g#\	.
8D\J	6	.	8a\J)	.
=57	=57	=57	=57	=57
!	!	!LO:N:vis=0	!	!
4E\	.	1.r	4g#\	.
4F#\	6\	.	(4a\	.
!	!	!	!LO:TX:a:t=b	!
4G#\	6	.	4b\)	-xit
=58	=58	=58	=58	=58
4A\	6	.	4cc#\	ex
!	!	!	!LO:TX:a:t=g	!
4B\	5	.	4.f#/	san-
4BB/	4	.	.	.
!	!	!	!LO:TX:a:t=a	!
.	3	.	8e/	-gui-
!	!	!	!LO:LB:g=original	!
=59	=59	=59	=59	=59
4E\	.	8r	4e/	-ne
.	.	8e/L	.	.
!	!	!LO:TX:a:t=P:problem=mixed beam	!	!
4r	.	8g#/	4r	.
.	.	8b/	.	.
4E\	.	8ee\	4r	.
.	.	8b\J	.	.
=60	=60	=60	=60	=60
!	!	!	!LO:N:vis=00	!
4A\	.	8cc#\L	0.r	.
.	.	8a\	.	.
8r	.	8cc#\	.	.
8A\L	.	8ee\	.	.
8c#\	.	8aa\	.	.
8A\J	.	8ee\J	.	.
!LO:LB:g=original	!	!	!	!
=61	=61	=61	=61	=61
4D/	.	16ff#\LL	.	.
.	.	16gg#\	.	.
.	.	16aa\	.	.
.	.	16gg#\JJ	.	.
4r	.	16ff#\LL	.	.
.	.	16gg#\	.	.
.	.	16ff#\	.	.
.	.	16ee\JJ	.	.
!	!	!LO:LB:g=original	!	!
4D/	.	16dd\LL	.	.
.	.	16ee\	.	.
.	.	16dd\	.	.
.	.	16cc#\JJ	.	.
=62	=62	=62	=62	=62
4E\	.	16b\LL	.	.
.	.	16cc#\	.	.
.	.	16dd\	.	.
.	.	16cc#\JJ	.	.
4r	.	16b/LL	.	.
.	.	16cc#/	.	.
.	.	16a/	.	.
.	.	16b/JJ	.	.
4BB/	7	16g#/LL	.	.
.	.	16a/	.	.
.	.	16f#/	.	.
.	.	16g#/JJ	.	.
=63	=63	=63	=63	=63
4E\	.	8e/L	.	.
.	.	16b/L	.	.
.	.	16e/JJ	.	.
4r	.	16e/LL	.	.
.	.	16b/	.	.
.	.	16cc#/	.	.
.	.	16dd/JJ	.	.
4E\	.	16ee\LL	.	.
.	.	16dd\	.	.
.	.	16ee\	.	.
.	.	16b\JJ	.	.
=64	=64	=64	=64	=64
!	!	!	!LO:N:vis=0	!
4A\	.	16cc#\LL	1.r	.
.	.	16a\	.	.
.	.	16b\	.	.
.	.	16cc#\JJ	.	.
4r	.	16dd\LL	.	.
.	.	16ee\	.	.
.	.	16ff#\	.	.
.	.	16gg#\JJ	.	.
4A\	.	8aa\L	.	.
.	.	8ee\J	.	.
=65	=65	=65	=65	=65
4D\	6	16ff#\LL	.	.
.	.	16ee\	.	.
.	.	16dd\	.	.
.	5	16cc#\JJ	.	.
4E\	4	4.b/	.	.
.	3	.	.	.
4EE/	.	.	.	.
.	.	8a/	.	.
=66	=66	=66	=66	=66
4AA/	.	4a/	4r	.
2A\	3	4r	4cc#\	es-
.	4	4r	4dd\	-to
!	!	!LO:LB:g=original	!	!
=67	=67	=67	=67	=67
4AA/	.	8r	(4ee\	no-
.	.	8e/L	.	.
2A\	3	8g#/	4b\	.
.	.	8b/J	.	.
!	!	!LO:N:vis=8.	!	!
.	6	8ee\L	4b\)	-bis
.	.	8b\J	.	.
=68	=68	=68	=68	=68
!LO:TX:b:t=a	!	!	!	!
4AA/	.	4cc#\	4r	.
2A\	3	4A/	4cc#\	pre-
.	4	4r	4dd\	-gus-
=69	=69	=69	=69	=69
2G#\	6	8r	(4ee\	-ta-
.	.	8e/L	.	.
.	.	8g#/	4b\	.
.	.	8b/J	.	.
4r	.	8ee\L	4b\)	-tum
.	.	8b\J	.	.
=70	=70	=70	=70	=70
4A\	.	4cc#\	4r	.
4B\	.	4A/	4cc#\	mor-
4A\	.	4r	4b\	.
!LO:LB:g=original	!	!	!	!
=71	=71	=71	=71	=71
!	!	!LO:N:vis=00	!	!
2D/	.	0.r	2ff#\	-tis
4BB/	.	.	4ee\	in
=72	=72	=72	=72	=72
4D\	6	.	8dd\L	e-
.	.	.	8cc#\J	-xa-
4E\	5	.	4.b\	-mi-
4EE/	4	.	.	.
.	3	.	8a\	-ne
=73	=73	=73	=73	=73
4AA/	.	.	4a\	mor-
4A\	-	.	4cc-X\	.
4F-X\	5	.	4cc-\	-tis
.	6	.	.	.
*	*	*	*custos	*
!	!	!	!LO:PB:g=original	!
=74	=74	=74	=74	=74
4E\	.	.	2b\	in
4D\	6	.	.	.
4C-X\	6	.	4a\	e-
=75	=75	=75	=75	=75
4D\	6	2.r	(8b\L	-xa-
.	.	.	8a\J)	.
4E\	.	.	4.g#\	-mi-
4EE/	4	.	.	.
.	3	.	8a\	.
=76	=76	=76	=76	=76
4AA/	.	8r	4a\	-ne
.	.	8A/L	.	.
4r	.	8c#/	4r	.
.	.	8e/	.	.
4AA/	.	8a/	4r	.
.	.	8b/J	.	.
=77	=77	=77	=77	=77
!	!	!	!LO:N:vis=00	!
4E\	.	16g#/LL	0.r	.
.	.	16e/	.	.
.	.	16f#/	.	.
.	.	16g#/JJ	.	.
4r	.	16a\LL	.	.
.	.	16b\	.	.
.	.	16cc#\	.	.
.	.	16dd\JJ	.	.
4E\	.	16ee\LL	.	.
.	.	16dd\	.	.
.	.	16ee\	.	.
.	.	16b\JJ	.	.
=78	=78	=78	=78	=78
4A\	.	16cc#\LL	.	.
.	.	16a\	.	.
.	.	16b\	.	.
.	.	16cc#\JJ	.	.
!	!	!LO:LB:g=original	!	!
4r	.	16dd\LL	.	.
.	.	16ee\	.	.
.	.	16ff#\	.	.
.	.	16gg#\JJ	.	.
4A\	.	16aa\LL	.	.
.	.	16gg#\	.	.
.	.	16aa\	.	.
.	.	16ee\JJ	.	.
=79	=79	=79	=79	=79
4D\	.	8ff#\L	.	.
.	.	16aa\L	.	.
.	.	16gg#\JJ	.	.
4r	.	16ff#\LL	.	.
.	.	16gg#\	.	.
.	.	16ff#\	.	.
.	.	16ee\JJ	.	.
!LO:LB:g=original	!	!	!	!
4D\	.	16dd\LL	.	.
.	.	16ee\	.	.
.	.	16dd\	.	.
.	.	16cc#\JJ	.	.
=80	=80	=80	=80	=80
4E\	.	8b\L	.	.
.	.	16dd\L	.	.
.	.	16cc#\JJ	.	.
4r	.	16b/LL	.	.
.	.	16cc#/	.	.
.	.	16b/	.	.
.	.	16a/JJ	.	.
4BB/	-	16g#/LL	.	.
.	.	16a/	.	.
.	.	16g#/	.	.
.	.	16f#/JJ	.	.
=81	=81	=81	=81	=81
!	!	!LO:TX:a:t=P:problem=mixed beam	!LO:N:vis=0	!
4E\	.	8e/L	1.r	.
.	.	8dd\	.	.
4r	.	8cc#\	.	.
.	.	8dd\J	.	.
4E\	.	8.e/L	.	.
.	.	16g#/Jk	.	.
=82	=82	=82	=82	=82
8.AA/L	.	8.a/L	.	.
16C#/K	.	16e/K	.	.
8.C#/	.	8e/	.	.
.	.	8e/	.	.
16BB/K	.	.	.	.
8.BB/	.	8.d/	.	.
16AA/Jk	.	16c#/Jk	.	.
=83	=83	=83	=83	=83
2.AA/	.	4c#/	2.r	.
.	.	4A/	.	.
!	!	!LO:N:vis=4	!	!
.	.	8r	.	.
!LO:TX:b:i:t=Da Capo si placet. Ave verum.	!	!LO:N:vis=4	!LO:TX:b:i:t=Da Capo usq(ve) ad Signum finis	!
.	.	8r	.	.
==	==	==	==;	==
*-	*-	*-	*-	*-
!!!system-decoration: s1,s2,s3
!!!ENC: Marta Lawrence
!!!END: 2020-12-04
!!!ENC: Tomasz Grochalski
!!!END: 2020-06-11
!!!YEC: Copyright 2022 Narodowy Instytut Fryderyka Chopina (https://polishscores.org)
!!!YEM: License CC-BY-4.0 (https://creativecommons.org/licenses/by/4.0)
